icons/wechat-pay-fill.svg

<svg xmlns="http://www.w3.org/2000/svg" width="24" height="24" fill="none"><g clip-path="url(#a)"><g><path fill="#121212" d="M9.27 14.6689C9.11707 14.747 8.93981 14.7625 8.77562 14.7123C8.61143 14.6622 8.47317 14.5501 8.39 14.3999L8.347 14.3049L6.529 10.3069C6.52155 10.2589 6.52155 10.21 6.529 10.1619C6.52885 10.1182 6.53747 10.0749 6.55434 10.0346C6.57121 9.99431 6.596 9.95778 6.62723 9.9272C6.65846 9.89662 6.6955 9.87261 6.73617 9.8566C6.77684 9.84058 6.8203 9.83288 6.864 9.83395C6.93503 9.83245 7.00435 9.85579 7.06 9.89995L9.24 11.4269C9.40162 11.5351 9.59154 11.5932 9.786 11.5939C9.90322 11.5946 10.0194 11.5722 10.128 11.5279L20.175 7.02795C19.1446 5.88988 17.8819 4.98618 16.4723 4.3779C15.0627 3.76962 13.5389 3.47091 12.004 3.50195C6.478 3.50195 2 7.23195 2 11.8699C2.03238 13.1194 2.36337 14.3429 2.96531 15.4382C3.56725 16.5335 4.42265 17.4688 5.46 18.1659C5.57038 18.2473 5.65276 18.361 5.69575 18.4912C5.73874 18.6215 5.74023 18.7618 5.7 18.8929L5.25 20.594C5.22264 20.6714 5.2055 20.7521 5.199 20.834C5.19804 20.8781 5.20603 20.9219 5.22248 20.9629C5.23893 21.0038 5.26349 21.041 5.2947 21.0723C5.32591 21.1035 5.36311 21.128 5.40406 21.1445C5.44502 21.1609 5.48888 21.1689 5.533 21.1679C5.6001 21.1643 5.66531 21.1444 5.723 21.11L7.903 19.8449C8.063 19.747 8.246 19.694 8.434 19.693C8.533 19.693 8.631 19.707 8.724 19.736C9.787 20.0359 10.885 20.188 11.989 20.186C17.514 20.186 21.999 16.4569 21.999 11.8559C22.0095 10.4837 21.629 9.13686 20.902 7.97295L9.35 14.6249L9.27 14.6689Z"/></g></g><defs><clipPath id="a"><rect width="24" height="24" fill="white"/></clipPath></defs></svg>

<svg width="24" height="24" fill="none" xmlns="http://www.w3.org/2000/svg"><g clip-path="url(#a)"><path d="M9.27 14.669a.662.662 0 0 1-.88-.27l-.043-.094-1.818-3.998a.473.473 0 0 1 0-.145.327.327 0 0 1 .335-.328.305.305 0 0 1 .196.066l2.18 1.527a.988.988 0 0 0 .546.167.891.891 0 0 0 .342-.066l10.047-4.5a10.73 10.73 0 0 0-8.171-3.526C6.478 3.502 2 7.232 2 11.87a7.83 7.83 0 0 0 3.46 6.296.662.662 0 0 1 .24.727l-.45 1.701a.944.944 0 0 0-.051.24.327.327 0 0 0 .334.334.414.414 0 0 0 .19-.058l2.18-1.265c.16-.098.343-.151.531-.152.099 0 .197.014.29.043 1.063.3 2.161.452 3.265.45 5.525 0 10.01-3.73 10.01-8.33a7.225 7.225 0 0 0-1.097-3.883L9.35 14.625l-.08.044Z" /></g><defs><clipPath id="a"><path fill="#fff" d="M0 0h24v24H0z"/></clipPath></defs></svg>
